fs/database_24_regular.svg

<svg viewBox="0 0 24 24" fill="none" xmlns="http://www.w3.org/2000/svg" height="1em" width="1em">
  <path d="M4 6C4 5.30945 4.3153 4.70664 4.77423 4.22025C5.2294 3.73784 5.85301 3.33745 6.56668 3.01752C7.99575 2.3769 9.91738 2 12 2C14.0826 2 16.0042 2.3769 17.4333 3.01752C18.147 3.33745 18.7706 3.73784 19.2258 4.22025C19.6847 4.70664 20 5.30945 20 6V18C20 18.6906 19.6847 19.2934 19.2258 19.7798C18.7706 20.2622 18.147 20.6626 17.4333 20.9825C16.0042 21.6231 14.0826 22 12 22C9.91738 22 7.99575 21.6231 6.56668 20.9825C5.85301 20.6626 5.2294 20.2622 4.77423 19.7798C4.3153 19.2934 4 18.6906 4 18V6ZM5.5 6C5.5 6.20691 5.59044 6.45909 5.86525 6.75034C6.14382 7.04559 6.58195 7.3455 7.18027 7.61372C8.37519 8.14937 10.0786 8.5 12 8.5C13.9214 8.5 15.6248 8.14937 16.8197 7.61372C17.418 7.3455 17.8562 7.04559 18.1348 6.75034C18.4096 6.45909 18.5 6.20691 18.5 6C18.5 5.79309 18.4096 5.54091 18.1348 5.24966C17.8562 4.95441 17.418 4.65449 16.8197 4.38628C15.6248 3.85063 13.9214 3.5 12 3.5C10.0786 3.5 8.37519 3.85063 7.18027 4.38628C6.58195 4.65449 6.14382 4.95441 5.86525 5.24966C5.59044 5.54091 5.5 5.79309 5.5 6ZM18.5 8.39242C18.1791 8.61282 17.8194 8.80942 17.4333 8.98248C16.0042 9.6231 14.0826 10 12 10C9.91738 10 7.99575 9.6231 6.56668 8.98248C6.18063 8.80942 5.82094 8.61282 5.5 8.39242V18C5.5 18.2069 5.59044 18.4591 5.86525 18.7503C6.14382 19.0456 6.58195 19.3455 7.18027 19.6137C8.37519 20.1494 10.0786 20.5 12 20.5C13.9214 20.5 15.6248 20.1494 16.8197 19.6137C17.418 19.3455 17.8562 19.0456 18.1348 18.7503C18.4096 18.4591 18.5 18.2069 18.5 18V8.39242Z" fill="#212121"/>
</svg>

<svg viewBox="0 0 24 24" fill="none" xmlns="http://www.w3.org/2000/svg" height="1em" width="1em">
  <path d="M4 6c0-.69.315-1.293.774-1.78.455-.482 1.079-.883 1.793-1.202C7.996 2.377 9.917 2 12 2c2.083 0 4.004.377 5.433 1.018.714.32 1.338.72 1.793 1.202.459.487.774 1.09.774 1.78v12c0 .69-.315 1.293-.774 1.78-.455.482-1.079.883-1.793 1.203C16.004 21.623 14.083 22 12 22c-2.083 0-4.004-.377-5.433-1.017-.714-.32-1.338-.72-1.793-1.203C4.315 19.293 4 18.69 4 18V6Zm1.5 0c0 .207.09.46.365.75.279.296.717.596 1.315.864 1.195.535 2.899.886 4.82.886 1.921 0 3.625-.35 4.82-.886.598-.268 1.036-.568 1.315-.864.275-.29.365-.543.365-.75 0-.207-.09-.46-.365-.75-.279-.296-.717-.596-1.315-.864-1.195-.535-2.9-.886-4.82-.886-1.921 0-3.625.35-4.82.886-.598.268-1.036.568-1.315.864-.275.29-.365.543-.365.75Zm13 2.392c-.32.22-.68.417-1.067.59C16.004 9.623 14.083 10 12 10c-2.083 0-4.004-.377-5.433-1.018a6.801 6.801 0 0 1-1.067-.59V18c0 .207.09.46.365.75.279.296.717.596 1.315.864 1.195.535 2.899.886 4.82.886 1.921 0 3.625-.35 4.82-.886.598-.268 1.036-.568 1.315-.864.275-.29.365-.543.365-.75V8.392Z" fill="#212121"/>
</svg>
